svg/u2615.svg

<svg viewBox="0 0 128 128" xmlns="http://www.w3.org/2000/svg">
  <path d="M44.57,73.85l-24.73-2.21c0,0-0.09,2.85-0.09,5.54c0,3.1,0.61,5.63,0.61,5.63S5.29,86.52,4.02,98.06 s21.4,26.33,55.47,25.9s54.9-13.66,56.03-25.76S97.36,83.28,97.36,83.28l0.84-6.48c0,0,20.13-1.13,21.12-11.12s-8.73-9.15-8.73-9.15 s3.24,3.38,3.1,6.05c-0.14,2.67-1.97,5.63-6.62,6.9c-4.65,1.27-11.26,1.97-11.26,1.97L44.57,73.85z" fill="#BBCED3"/>
  <path d="M101.72,52.31l-4.65,3.1l0.56,2.11c0,0,9.15-0.84,12.81,0.56c3.66,1.41,7.18,7.32,7.18,7.32 l4.36-5.91l-15.35-8.59L101.72,52.31z" fill="#6AA5AC"/>
  <path d="M40.2,95.2c0,0-11.71-2.98-12.76-0.47c-0.75,1.78,4.25,7.18,7.79,9.95 c3.47,2.72,12.18,7.79,23.37,7.79c12.2,0,19.99-4.5,24.59-7.98c3.92-2.96,7.88-9.39,6.95-10.42C89.19,93.04,40.2,95.2,40.2,95.2z" fill="#6AA5AC"/>
  <path d="M21.01,86.42c0,0-12.79,3.87-12.53,11.78c0.28,8.63,16.89,20.93,51.34,20.84 c34.44-0.09,50.59-14.55,51.43-22.24c0.84-7.7-14.73-10.14-14.73-10.14S92.2,111.44,59.72,112C28.46,112.54,21.01,86.42,21.01,86.42 z" fill="#E0E0E0"/>
  <path d="M96.61,47.9c0,0,8.4-0.71,12.86-0.19c5.63,0.66,14.45,4.88,14.27,14.92s-9.39,14.73-15.02,16.61 c-4.09,1.36-14.36,1.78-14.36,1.78l1.03-6.19c0,0,8.63,0,12.95-1.6s8.54-5.26,8.63-10.7c0.11-6.22-7.13-8.07-12.48-7.98 c-5.35,0.09-10.42,1.31-10.42,1.31L96.61,47.9z" fill="#E0E0E0"/>
  <path d="M58.5,29.08c-25.76,0.65-39.84,11.83-40.26,19.85c-0.42,8.02,1.7,30.29,4.65,37.73 c3.24,8.17,12.53,22.1,37.73,21.12s32.38-15.06,34.49-23.79c1.54-6.37,4.79-30.23,3.94-36.32C98.2,41.61,86.52,28.38,58.5,29.08z" fill="#E0E0E0"/>
  <path d="M96.61,90.41c0.08,1.27,3.65,2.06,2.82,6.01c-0.94,4.41-5.16,5.16-5.07,6.85 c0.11,1.99,10.7,0.47,11.17-6.38C105.99,90.04,96.51,89.01,96.61,90.41z" fill="#FFFFFF"/>
  <path d="M20.59,91.73c1.12,0.98-1.02,2.28-1.78,4.32c-1.13,3,3.28,7.7,8.63,10.32 c3.77,1.85,9.32,3.5,9.2,5.26c-0.19,2.63-25.06-4.12-25.06-12.95C11.58,91.16,19.08,90.41,20.59,91.73z" fill="#FFFFFF"/>
  <path d="M23.5,62.91c-1.47,1.68-1,13.47,1.6,20.93c2.25,6.48,4.79,10.32,7.32,10.42 c2.53,0.09-1.6-10.51-1.41-17.36c0.19-6.85,0-8.73-1.41-10.32C28.19,64.98,24.81,61.41,23.5,62.91z" fill="#FFFFFF"/>
  <path d="M59.25,36.07c-17.17,0.24-35.19,7.32-34.82,16.52c0.38,9.2,18.3,14.08,35.57,14.17 c17.27,0.09,32.94-7.04,33.04-14.64C93.13,44.52,79.43,35.79,59.25,36.07z" fill="#6D4B41"/>
  <path d="M28.75,50.71c0,3,4.22,4.17,7.04,4.32c3.57,0.19,6.19-0.94,6.48-2.72c0.28-1.78-1.41-3.38,0.94-4.79 c2.35-1.41,5.2-0.6,8.73,0.47c4.04,1.22,10.42,5.44,13.89,3.75c3.47-1.69-0.28-4.6,1.31-5.73s5.16-1.13,10.14,0.66 c4.97,1.78,9.48,4.88,11.17,3.57c1.69-1.31-3.99-7.38-17.08-9.67c-11.83-2.06-24.93-0.71-31.91,1.78 C32.88,44.71,28.75,48.09,28.75,50.71z" fill="#B59075"/>
  <path d="M70.42,54.94c-5.82,2.25-15.58-3.85-21.12-3.19c-2.91,0.35-3.75,3.66-1.03,4.79 c2.72,1.13,3.15-0.97,6.57,0.28c4.48,1.65,13.79,3.45,16.99,2.25c4.42-1.66,3.85-3.94,5.54-4.22c2.8-0.47,5.6,2.58,7.13,0.84 c1.41-1.6-0.02-3.48-4.69-5.16c-3.66-1.31-6.5-1.64-7.32-0.56C71.55,51.18,73.27,53.83,70.42,54.94z" fill="#B59074"/>
  <path d="M82.9,3.51c-0.86,2.23,3.66,4.22,0.75,8.35c-2.42,3.43-22.4-0.93-30.69,9.29 c-7.23,8.92-1.31,18.4,0.38,21.12c1.69,2.72,5.44,7.04,8.26,6.29c2.82-0.75-1.5-10.98,6.38-16.14s19-5.23,23.93-11.64 c3.75-4.88,1.41-12.11-2.16-15.77C87.16,2.34,83.84,1.06,82.9,3.51z" opacity="0.4" fill="#B8CED4"/>
</svg>

<svg viewBox="0 0 128 128" xmlns="http://www.w3.org/2000/svg">
  <defs/>
  <path d="M44.57,73.85 L19.84,71.64 C19.84,71.64 19.75,74.49 19.75,77.18 C19.75,80.28 20.36,82.81 20.36,82.81 C20.36,82.81 5.29,86.52 4.02,98.06 C2.75,109.6 25.42,124.39 59.49,123.96 C93.56,123.53 114.39,110.3 115.52,98.2 C116.65,86.1 97.36,83.28 97.36,83.28 L98.2,76.8 C98.2,76.8 118.33,75.67 119.32,65.68 C120.31,55.69 110.59,56.53 110.59,56.53 C110.59,56.53 113.83,59.91 113.69,62.58 C113.55,65.25 111.72,68.21 107.07,69.48 C102.42,70.75 95.81,71.45 95.81,71.45 L44.57,73.85 Z" fill="#BBCED3"/>
  <path d="M101.72,52.31 L97.07,55.41 L97.63,57.52 C97.63,57.52 106.78,56.68 110.44,58.08 C114.1,59.49 117.62,65.4 117.62,65.4 L121.98,59.49 L106.63,50.9 L101.72,52.31 Z" fill="#6AA5AC"/>
  <path d="M40.2,95.2 C40.2,95.2 28.49,92.22 27.44,94.73 C26.69,96.51 31.69,101.91 35.23,104.68 C38.7,107.4 47.41,112.47 58.6,112.47 C70.8,112.47 78.59,107.97 83.19,104.49 C87.11,101.53 91.07,95.1 90.14,94.07 C89.19,93.04 40.2,95.2 40.2,95.2 Z" fill="#6AA5AC"/>
  <path d="M21.01,86.42 C21.01,86.42 8.22,90.29 8.48,98.2 C8.76,106.83 25.37,119.13 59.82,119.04 C94.26,118.95 110.41,104.49 111.25,96.8 C112.09,89.1 96.52,86.66 96.52,86.66 C96.52,86.66 92.2,111.44 59.72,112 C28.46,112.54 21.01,86.42 21.01,86.42 Z" fill="#E0E0E0"/>
  <path d="M96.61,47.9 C96.61,47.9 105.01,47.19 109.47,47.71 C115.1,48.37 123.92,52.59 123.74,62.63 C123.56,72.67 114.35,77.36 108.72,79.24 C104.63,80.6 94.36,81.02 94.36,81.02 L95.39,74.83 C95.39,74.83 104.02,74.83 108.34,73.23 C112.66,71.63 116.88,67.97 116.97,62.53 C117.08,56.31 109.84,54.46 104.49,54.55 C99.14,54.64 94.07,55.86 94.07,55.86 L96.61,47.9 Z" fill="#E0E0E0"/>
  <path d="M58.5,29.08 C32.74,29.73 18.66,40.91 18.24,48.93 C17.82,56.95 19.94,79.22 22.89,86.66 C26.13,94.83 35.42,108.76 60.62,107.78 C85.82,106.8 93,92.72 95.11,83.99 C96.65,77.62 99.9,53.76 99.05,47.67 C98.2,41.61 86.52,28.38 58.5,29.08 Z" fill="#E0E0E0"/>
  <path d="M96.61,90.41 C96.69,91.68 100.26,92.47 99.43,96.42 C98.49,100.83 94.27,101.58 94.36,103.27 C94.47,105.26 105.06,103.74 105.53,96.89 C105.99,90.04 96.51,89.01 96.61,90.41 Z" fill="#FFFFFF"/>
  <path d="M20.59,91.73 C21.71,92.71 19.57,94.01 18.81,96.05 C17.68,99.05 22.09,103.75 27.44,106.37 C31.21,108.22 36.76,109.87 36.64,111.63 C36.45,114.26 11.58,107.51 11.58,98.68 C11.58,91.16 19.08,90.41 20.59,91.73 Z" fill="#FFFFFF"/>
  <path d="M23.5,62.91 C22.03,64.59 22.5,76.38 25.1,83.84 C27.35,90.32 29.89,94.16 32.42,94.26 C34.95,94.35 30.82,83.75 31.01,76.9 C31.2,70.05 31.01,68.17 29.6,66.58 C28.19,64.98 24.81,61.41 23.5,62.91 Z" fill="#FFFFFF"/>
  <path d="M59.25,36.07 C42.08,36.31 24.06,43.39 24.43,52.59 C24.81,61.79 42.73,66.67 60,66.76 C77.27,66.85 92.94,59.72 93.04,52.12 C93.13,44.52 79.43,35.79 59.25,36.07 Z" fill="#6D4B41"/>
  <path d="M28.75,50.71 C28.75,53.71 32.97,54.88 35.79,55.03 C39.36,55.22 41.98,54.09 42.27,52.31 C42.55,50.53 40.86,48.93 43.21,47.52 C45.56,46.11 48.41,46.92 51.94,47.99 C55.98,49.21 62.36,53.43 65.83,51.74 C69.3,50.05 65.55,47.14 67.14,46.01 C68.73,44.88 72.3,44.88 77.28,46.67 C82.25,48.45 86.76,51.55 88.45,50.24 C90.14,48.93 84.46,42.86 71.37,40.57 C59.54,38.51 46.44,39.86 39.46,42.35 C32.88,44.71 28.75,48.09 28.75,50.71 Z" fill="#B59075"/>
  <path d="M70.42,54.94 C64.6,57.19 54.84,51.09 49.3,51.75 C46.39,52.1 45.55,55.41 48.27,56.54 C50.99,57.67 51.42,55.57 54.84,56.82 C59.32,58.47 68.63,60.27 71.83,59.07 C76.25,57.41 75.68,55.13 77.37,54.85 C80.17,54.38 82.97,57.43 84.5,55.69 C85.91,54.09 84.48,52.21 79.81,50.53 C76.15,49.22 73.31,48.89 72.49,49.97 C71.55,51.18 73.27,53.83 70.42,54.94 Z" fill="#B59074"/>
  <path d="M82.9,3.51 C82.04,5.74 86.56,7.73 83.65,11.86 C81.23,15.29 61.25,10.93 52.96,21.15 C45.73,30.07 51.65,39.55 53.34,42.27 C55.03,44.99 58.78,49.31 61.6,48.56 C64.42,47.81 60.1,37.58 67.98,32.42 C75.86,27.26 86.98,27.19 91.91,20.78 C95.66,15.9 93.32,8.67 89.75,5.01 C87.16,2.34 83.84,1.06 82.9,3.51 Z" fill="#B8CED4" opacity="0.4"/>
</svg>
